X:1
T:Farrant, CM
T:Farrant, CM
T:From Richard Farrant (1530-1580)
T:Public Domain Courtesy of the Cyber Hymnal™
C:From Richard Farrant (1530-1580)
Z:Public Domain
Z:Courtesy of the Cyber Hymnal™
%%score ( 1 2 ) 3
L:1/8
Q:1/4=110
M:4/4
K:G
V:1 treble 
V:2 treble 
V:3 bass 
V:1
 [DG]2 | [EG]3 [FA] [GB]2 [FA]2 | [EG]2 [Gc]2 [FA]2 [FA]2 | (B^c) d2 [Ad]2 [Gc]2 | [Fd]6 G2 | %5
 [Ac]2 [Ac]2 [GB]2 [FA]2 | [EG]2 [EA]2 [DF]2 [DB]2 | (EF) G2 [DG]2 [DF]2 | [DG]6 |] %9
V:2
 x2 | x8 | x8 | G2 (FG) x4 | x6 G2 | x8 | x8 | C2 (B,C) x4 | x6 |] %9
V:3
 [G,B,]2 | [E,B,]3 [D,D] [G,D]2 [D,D]2 | [E,B,]2 [C,E]2 [D,D]2 [D,D]2 | %3
 [G,D]2 [B,D]2 [A,E]2 [A,E]2 | [D,D]6 [G,B,]2 | [G,E]2 [F,D]2 [G,D]2 [D,D]2 | %6
 [E,B,]2 [A,,C]2 [D,A,]2 [G,,G,]2 | [C,G,]2 [E,G,]2 [D,A,]2 [D,A,]2 | [G,,B,]6 |] %9

